X: 13536
T: Flowers Of The Red Mill, The
R: reel
M: 4/4
K: Adorian
|:fg|aged BG~G2|BGdG eGdG|aged BG~G2|BddB A2:|
Bd|eaaf ~g3d|eaaf gfed|eaaf ga~a2|gede BAAd|
eaaf ~g3d|eaaf gfga|bgaf gedg|eBdB A2|

